assets/Ping pong/Flat/ping_pong_flat.svg

<svg width="32" height="32" viewBox="0 0 32 32" fill="none" xmlns="http://www.w3.org/2000/svg">
<path d="M23.7175 22.608C22.4658 23.7186 21.2669 24.3599 20.14 24.6667C16.0599 25.7775 13.0599 21.9359 11.7936 20.6622C10.5676 19.443 7.40951 16.9927 8.16541 13.1413C8.44661 11.7086 9.2508 10.1603 10.8651 8.54601C14.3428 5.0683 19.8523 4.8415 23.5946 7.87504C28.2158 11.6268 28.1686 18.6673 23.7175 22.608Z" fill="#E39D89"/>
<path d="M13.2594 23.1675L8.38621 28.7764C7.57621 29.5864 6.10981 29.1479 5.17615 28.2447L4.4962 27.4836C3.73507 26.5702 3.43231 25.4208 4.24231 24.6108L9.70936 19.6075C10.5194 18.7975 11.8394 18.7975 12.6494 19.6075L13.2594 20.2175C14.0594 21.0375 14.0594 22.3575 13.2594 23.1675Z" fill="#FBB8AB"/>
<path d="M4.18757 24.6679C4.81139 24.0983 6.30592 24.5977 7.33625 25.6378C8.37941 26.6908 8.89304 28.2512 8.28361 28.8549C8.25755 28.8807 8.23143 28.9056 8.20525 28.9296C7.3718 29.5222 6.04389 29.0842 5.17615 28.2447L4.4962 27.4836C3.75278 26.5915 3.44665 25.4742 4.18757 24.6679Z" fill="#E39D89"/>
<path d="M24.8228 21.7402C23.5711 22.8507 22.3722 23.4921 21.2453 23.7989C17.1652 24.9097 14.1652 21.0681 12.8989 19.7944C11.6729 18.5752 8.5148 16.1248 9.2707 12.2735C9.55189 10.8407 10.3561 9.29246 11.9704 7.67818C15.4481 4.20048 20.9576 3.97367 24.6999 7.00721C29.3211 10.759 29.2738 17.7994 24.8228 21.7402Z" fill="#E5336D"/>
<path d="M15.1579 9.05688C16.902 9.05688 18.3159 7.64303 18.3159 5.89895C18.3159 4.15488 16.902 2.74103 15.1579 2.74103C13.4139 2.74103 12 4.15488 12 5.89895C12 7.64303 13.4139 9.05688 15.1579 9.05688Z" fill="#E6E6E6"/>
</svg>

<svg xmlns="http://www.w3.org/2000/svg" width="32" height="32" fill="none"><path fill="#E39D89" d="M23.718 22.608c-1.252 1.11-2.451 1.752-3.578 2.059-4.08 1.11-7.08-2.731-8.346-4.005-1.226-1.219-4.384-3.67-3.629-7.52.282-1.433 1.086-2.982 2.7-4.596 3.478-3.478 8.987-3.704 12.73-.671 4.62 3.752 4.574 10.792.123 14.733Z"/><path fill="#FBB8AB" d="m13.26 23.168-4.874 5.608c-.81.81-2.276.372-3.21-.531l-.68-.761c-.76-.914-1.064-2.063-.254-2.873l5.467-5.003c.81-.81 2.13-.81 2.94 0l.61.61c.8.82.8 2.14 0 2.95Z"/><path fill="#E39D89" d="M4.188 24.668c.623-.57 2.118-.07 3.148.97 1.043 1.053 1.557 2.613.948 3.217a2.82 2.82 0 0 1-.079.075c-.833.592-2.161.154-3.029-.685l-.68-.761c-.743-.893-1.05-2.01-.308-2.816Z"/><path fill="#E5336D" d="M24.823 21.74c-1.252 1.11-2.45 1.752-3.578 2.059-4.08 1.11-7.08-2.73-8.346-4.005-1.226-1.219-4.384-3.67-3.628-7.52.28-1.433 1.085-2.982 2.7-4.596 3.477-3.478 8.987-3.704 12.729-.67 4.621 3.751 4.574 10.791.123 14.732Z"/><path fill="#E6E6E6" d="M15.158 9.057a3.158 3.158 0 1 0 0-6.316 3.158 3.158 0 0 0 0 6.316Z"/></svg>
